_includes/icons/color-dmg.svg

<svg fill="#666" height="50" viewBox="0 0 48 48" width="50" xmlns="http://www.w3.org/2000/svg"><path d="m40 45h-32v-42h22l10 10z" fill="#ff80ab"/><path d="m38.5 14h-9.5v-9.5z" fill="#fce4ec"/><g fill="#e91e63"><path d="m11.707031 33v-9.953125h2.632813c1.160156 0 2.085937.367188 2.777344 1.105469.691406.738281 1.042968 1.75 1.058593 3.035156v1.613281c0 1.308594-.347656 2.335938-1.039062 3.082032-.6875.746093-1.640625 1.117187-2.851563 1.117187zm2.011719-8.277344v6.609375h.601563c.667968 0 1.140625-.175781 1.414062-.53125.273438-.351562.417969-.960937.429688-1.828125v-1.726562c0-.929688-.128907-1.578125-.390625-1.945313-.257813-.367187-.699219-.558593-1.324219-.578125z"/><path d="m22.242188 23.046875 1.878906 7.199219 1.871094-7.199219h2.625v9.953125h-2.015625v-2.691406l.183593-4.152344-1.988281 6.84375h-1.367187l-1.988282-6.84375.1875 4.148438v2.695312h-2.011718v-9.953125z"/><path d="m37 31.871094c-.386719.417969-.863281.734375-1.425781.949219-.5625.210937-1.179688.316406-1.847656.316406-1.144532 0-2.035157-.355469-2.667969-1.0625-.632813-.710938-.960938-1.738281-.976563-3.09375v-1.792969c0-1.371094.300782-2.425781.898438-3.167969.597656-.738281 1.472656-1.109375 2.621094-1.109375 1.078125 0 1.894531.265625 2.445312.800782.546875.53125.863281 1.367187.949219 2.507812h-1.953125c-.054688-.632812-.1875-1.066406-.394531-1.296875-.210938-.226562-.539063-.34375-.984375-.34375-.542969 0-.9375.199219-1.183594.59375-.246094.398438-.375 1.027344-.382813 1.894531v1.804688c0 .90625.136719 1.566406.40625 1.980469.269532.410156.71875.617187 1.335938.617187.394531 0 .71875-.078125.964844-.238281l.175781-.125v-1.824219h-1.40625v-1.515625h3.425781z"/></g></svg>

<svg xmlns="http://www.w3.org/2000/svg" viewBox="0 0 48 48" width="50" height="50" fill="#666"><path d="M 40 45 L 8 45 L 8 3 L 30 3 L 40 13 Z" fill="#ff80ab"/><path d="M 38.5 14 L 29 14 L 29 4.5 Z" fill="#fce4ec"/><path d="M 11.707031 33 L 11.707031 23.046875 L 14.339844 23.046875 C 15.5 23.046875 16.425781 23.414063 17.117188 24.152344 C 17.808594 24.890625 18.160156 25.902344 18.175781 27.1875 L 18.175781 28.800781 C 18.175781 30.109375 17.828125 31.136719 17.136719 31.882813 C 16.449219 32.628906 15.496094 33 14.285156 33 Z M 13.71875 24.722656 L 13.71875 31.332031 L 14.320313 31.332031 C 14.988281 31.332031 15.460938 31.15625 15.734375 30.800781 C 16.007813 30.449219 16.152344 29.839844 16.164063 28.972656 L 16.164063 27.246094 C 16.164063 26.316406 16.035156 25.667969 15.773438 25.300781 C 15.515625 24.933594 15.074219 24.742188 14.449219 24.722656 Z" fill="#e91e63"/><path d="M 22.242188 23.046875 L 24.121094 30.246094 L 25.992188 23.046875 L 28.617188 23.046875 L 28.617188 33 L 26.601563 33 L 26.601563 30.308594 L 26.785156 26.15625 L 24.796875 33 L 23.429688 33 L 21.441406 26.15625 L 21.628906 30.304688 L 21.628906 33 L 19.617188 33 L 19.617188 23.046875 Z" fill="#e91e63"/><path d="M 37 31.871094 C 36.613281 32.289063 36.136719 32.605469 35.574219 32.820313 C 35.011719 33.03125 34.394531 33.136719 33.726563 33.136719 C 32.582031 33.136719 31.691406 32.78125 31.058594 32.074219 C 30.425781 31.363281 30.097656 30.335938 30.082031 28.980469 L 30.082031 27.1875 C 30.082031 25.816406 30.382813 24.761719 30.980469 24.019531 C 31.578125 23.28125 32.453125 22.910156 33.601563 22.910156 C 34.679688 22.910156 35.496094 23.175781 36.046875 23.710938 C 36.59375 24.242188 36.910156 25.078125 36.996094 26.21875 L 35.042969 26.21875 C 34.988281 25.585938 34.855469 25.152344 34.648438 24.921875 C 34.4375 24.695313 34.109375 24.578125 33.664063 24.578125 C 33.121094 24.578125 32.726563 24.777344 32.480469 25.171875 C 32.234375 25.570313 32.105469 26.199219 32.097656 27.066406 L 32.097656 28.871094 C 32.097656 29.777344 32.234375 30.4375 32.503906 30.851563 C 32.773438 31.261719 33.222656 31.46875 33.839844 31.46875 C 34.234375 31.46875 34.558594 31.390625 34.804688 31.230469 L 34.980469 31.105469 L 34.980469 29.28125 L 33.574219 29.28125 L 33.574219 27.765625 L 37 27.765625 Z" fill="#e91e63"/></svg>
